X:1
T:James Gibb editions
T:Cassandra mia - Antonelli da Rimini
%%score [ 1 2 3 ]
L:1/8
Q:1/4=108
M:2/2
K:G
V:1 treble-8 nm="Tenor I" snm="T I"
V:2 treble-8 nm="Tenor II" snm="T II"
V:3 bass nm="Bass" snm="B"
V:1
"^Cassandra mia""^Cornelio Antonelli da Rimini\n(C16th)" d4 d2 d2 | d2 d2 e4 | d4 B2 c2 | d4 B4 :: %4
w: Cas- san- dra|mia, gen- til|Cas- san- dra|bel- la,|
w: Ma non so|che pen- sar|de' pa- e-|sa- ni|
w: Per- chè gio-|ia sei tu|le- ga- ta~~in|o- ro|
[M:2/2][K:treble-8] d2 dd d2 d2 | d2 d2 c2 B2 | A4 A4 | z2 c2 c2 c2 | B2 A2 G4 | A4 B2 c2 | %10
w: Sia be- ne- det- ta|l'ho- ra che par-|tis- si|Dal- la tua|ter- re poi|che quà ve-|
w: Co- me t'han- no fat-|to par- tir da|lo- ro|Se get- ta-|no le gio-|ie~~e lo te-|
w: E va- glion più quest'|oc- chi~~e ma- no|bel- la|Che non la|pa- tria con|le sue cas-|
 d4 B4 :| %11
w: nis- si.|
w: so- ro.|
w: tel- la.|
V:2
 B4 B2 B2 | B2 B2 c4 | B4 G2 G2 | (A2 F2) G4 ::[M:2/2][K:treble-8] B2 BB B2 B2 | B2 B2 A2 G2 | %6
w: Cas- san- dra|mia, gen- til|Cas- san- dra|bel\- * la,|Sia be- ne- det- ta|l'ho- ra che par-|
w: Ma non so|che pen- sar|de' pa- e-|sa\- * ni|Co- me t'han- no fat-|to par- tir da|
w: Per- chè gio-|ia sei tu|le- ga- ta~~in|o\- * ro|E va- glion più quest'|oc- chi~~e ma- no|
 F4 F4 | z2 A2 A2 A2 | G2 F2 E4 | F4 G2 G2 | (A2 F2) G4 :| %11
w: tis- si|Dal- la tua|ter- re poi|che quà ve-|nis\- * si.|
w: lo- ro|Se get- ta-|no le gio-|ie~~e lo te-|so\- * ro.|
w: bel- la|Che non la|pa- tria con|le sue cas-|tel\- * la.|
V:3
 G,4 G,2 G,2 | G,2 G,2 C,4 | G,4 E,2 C,2 | D,4 G,,4 ::[M:2/2] G,2 G,G, G,2 G,2 | G,2 G,2 =F,2 E,2 | %6
w: Cas- san- dra|mia, gen- til|Cas- san- dra|bel- la,|Sia be- ne- det- ta|l'ho- ra che par-|
w: Ma non so|che pen- sar|de' pa- e-|sa- ni|Co- me t'han- no fat-|to par- tir da|
w: Per- chè gio-|ia sei tu|le- ga- ta~~in|o- ro|E va- glion più quest'|oc- chi~~e ma- no|
 D,4 D,4 | z2 =F,2 F,2 F,2 | E,2 D,2 C,4 | D,4 E,2 C,2 | D,4 G,,4 :| %11
w: tis- si|Dal- la tua|ter- re poi|che quà ve-|nis- si.|
w: lo- ro|Se get- ta-|no le gio-|ie~~e lo te-|so- ro.|
w: bel- la|Che non la|pa- tria con|le sue cas-|tel- la.|

